X:887
T:Hestetramper'n
T:Gubben Thorsen
C:anon.
O:Norway
Z:Transcribed by Frank Nordberg - http://www.musicaviva.com
F:http://abc.musicaviva.com/tunes/norway/gubben-thorsen/gubben-thorsen-pno1.abc
%In the USA they have Chopsticks, in Norway we have this instead.
%Guaranteed to drive any parents mad ;-)
V:1 Program 1 0 %Piano
V:2 Program 1 0 %Piano
M:C
L:1/8
K:F#
V:1
z [A,CF] z [A,CF] z [B,CE][B,CE][B,CE] |\
z [B,CE] z [B,CE] z [A,CF][A,CF][A,CF]::z [A,CF] z [A,CF] z [B,CE][B,CE][B,CE] |\
z [B,CE] z [B,CE] z [A,CF][A,CF][A,CF]:|z [A,CF] z [A,CF] z [A,CF] z [A,CF]|
V:2
F,2D,2C,4|C,2D,2F,4::A2c2d4|d2c2A4:|F,2C,2F,2C,2|
%
V:1
z4 z [B,CE][B,CE][B,CE] |z [B,CE] z [B,CE] z [B,CE] z [B,CE]|\
z4 z [A,CF][A,CF][A,CF]||z [A,CF] z [A,CF] z [B,CE][B,CE][B,CE] |\
z [B,CE] z [B,CE] z [A,CF][A,2C2F2]|]
V:2
F,E,F,=G,^G,4|G,2C,2G,2C,2|G,=G,^G,=A,^A,4||F,2D,2C,4|C,2D,2F,4|]
W:
W:
W:  From Musica Viva - http://www.musicaviva.com
W:  the Internet center for free sheet music downloads.
